X:12109
T:Nun tabes all
R:vals
C:Trad.
M:3/8
L:1/8
Q:1/4=150
K:C
G|: G2 F|EFG|G2 F|E2 G|F2 E|
DEF|E2 D|[1 C2 G :|[2 C2 C|
|DDF|E2 D|CCB,|[1 C2 C:|[2 C2 z||
